X: 1
T:The Golden Keyboard
M:C|
L:1/8
K:EDor
"Em"BGEF GFGA| "G"B2 gB fBeB| "Em"BGEF GBAG| "D"(3FED AD BDAF|
"Em"EDEF GFGA| "G"B3 gB fBec| "D"(3ded "A"ce "D"dBAF| DFAF "Em"GE E2 :||
